X:1
T: Hare in the Corn
M:6/8
L:1/8
S: Noel Jackson <noelbats:onetel.com> tradtunes 2013-1-27
K: G
||:G|"G"d3-de=f|"Am"edc BAG|"C"c2g "G"B2g|"D7"aAA ABc|!
|"G"d3-de=f|"Am"edc BAG|"D"cBc Adc|"G"BGG G2:||!
||:"G"dB/c/d GB/c/d|"G"dB/c/d GB/c/d|"Am"ec/d/e Acd|"Am"ec/d/e ABc|!
|"G"dcB "C"edc|"D"fed "Em"gfe|"D7"dcB Agf|"G"gGG G2:||
